X:730
T:Cherish the Ladies
M:6/8
L:1/8
R:jig
B:O'Neill's 730
N:"collected by Gillan"
Z:transcribed by mvhplank
K:D
((3A/2B/2c/2)|"Sign"dFF AFF|DFA AGF|BEE GEE|GBA GFE|\
dFF AFF|DFA AFA|Bcd efg|fdd "Fine"d2:|
||((3A/2B/2c/2)|dfd cec|dfd AGF|BEE GEE|GBA GFE|\
dfd cec|dfd AGF|Bcd efg|fdd d2:|
||A|dfd cec|dfd AGF|B z E G z E|GcB/2A/2 GFE|\
eGe cFc|dGd A2 G|(A>Bc/2d/2) efg|fdd d2:|
||B|Add fdd|add fdd|(A/2B/2c)d gfg|ece gfe|\
agf bgf|afd cBA|((3f/2g/2a/2) B2 AGF|GEF GFE:|
||f2 f afd|fed cde|g2 g gfg|ece gfe|\
agf bge|afd cBA|fdB AGF|GEF GFE:|
||DFA dAF|DFA BGE|DFA dAF|GEF GFE|\
DFA DGB|DFA d2 e|fdB AGF|GEF  GF"Sign"E:|


